!!!COM:	Josquin des Prez
!!!CDT:	~1450-1521/08/27
!!!OPR:	Missa La sol fa re mi
!!!ONM:	4
!!!OTL:	Sanctus
!!!AGN:	Mass; Sanctus
!!!SCT:	NJE 11.2
!!!SCA:	New Josquin Edition 11.2
!!!voices: 4
!!!voices-OPR:	4
**kern	**kern	**kern	**kern
*staff4	*staff3	*staff2	*staff1
*I"Bassus	*I"Tenor	*I"Altus	*I"Superius
*I'B	*I'T	*I'A	*I'S
*>[A,B,C,D,E,F,C]	*>[A,B,C,D,E,F,C]	*>[A,B,C,D,E,F,C]	*>[A,B,C,D,E,F,C]
*>Sanctus[A]	*>Sanctus[A]	*>Sanctus[A]	*>Sanctus[A]
*>Pleni[B]	*>Pleni[B]	*>Pleni[B]	*>Pleni[B]
*>Osanna[C]	*>Osanna[C]	*>Osanna[C]	*>Osanna[C]
*>Benedictus[D]	*>Benedictus[D]	*>Benedictus[D]	*>Benedictus[D]
*>Qui_venit[E]	*>Qui_venit[E]	*>Qui_venit[E]	*>Qui_venit[E]
*>Osanna2[F]	*>Osanna2[F]	*>Osanna2[F]	*>Osanna2[F]
*>A	*>A	*>A	*>A
*clefF4	*clefGv2	*clefGv2	*clefG2
*k[]	*k[]	*k[]	*k[]
*M3/1	*M3/1	*M3/1	*M3/1
*met(O)	*met(O)	*met(O)	*met(O)
!!!OMD: Sanctus
!!section: Sanctus
=1-	=1-	=1-	=1-
1.A	0.r	0A	0a
2G\	.	.	.
2F\	.	2.A/	1a
2D\	.	.	.
.	.	4B\	.
=2	=2	=2	=2
1E	0.r	1c	1g
0D	.	0d	1.f
.	.	.	2d/
=3	=3	=3	=3
0.AA	0.A	[0.c	[0.e
=4	=4	=4	=4
1C	1G	1c]	1e]
2.D\	1F	1A	0a
4E\	.	.	.
1F	1D	1d	.
=5	=5	=5	=5
2r	1E	2B\	1g
2C/	.	2.e\	.
2.D\	0A	.	1f
.	.	4d\	.
.	.	1d	.
4E\	.	.	.
1F	.	.	1d
.	.	2A/	.
=6	=6	=6	=6
2E\	1G	2B\	1e
2C/	.	2c\	.
2.D\	1F	2A/	0a
.	.	2.f\	.
4E\	.	.	.
1F	1D	.	.
.	.	4e\	.
.	.	4d\	.
.	.	4c\	.
=7	=7	=7	=7
2r	1E	2B\	2.g/
2C/	.	2c\	.
.	.	.	4e/
2D\	0A	2F/	2f/
2C/	.	1c	1e
1F	.	.	.
.	.	2A/	2d/
=8	=8	=8	=8
2E\	1G	2B\	1e
2C/	.	2c\	.
2.D\	1F	2A/	0a
.	.	2.f\	.
4E\	.	.	.
1F	1D	.	.
.	.	4e\	.
.	.	4d\	.
.	.	4c\	.
=9	=9	=9	=9
2r	1E	2B\	2.g/
2C/	.	2c\	.
.	.	.	4e/
2D\	0A	2F/	2f/
2C/	.	1c	1e
1F	.	.	.
.	.	2d\	2d/
=10	=10	=10	=10
1E	1G	1e	2c/
.	.	.	2.B/
2.D\	1F	1A	.
.	.	.	4A/
.	.	.	1A
4C/	.	.	.
1BB	1D	1d	.
.	.	.	2G#i/
=11	=11	=11	=11
0AA	0E	1.c	0A
.	.	2C/	.
1r	1r	1C	[1c
=12	=12	=12	=12
1.FF	0.A	1.F	2c/]
.	.	.	2c/
.	.	.	1c
2FF/	.	2F/	.
1FF	.	1F	1f
=13	=13	=13	=13
1C	1G	1r	1e
0D	1F	1r	1.A
.	1D	2r	.
.	.	2F/	2B/
=14	=14	=14	=14
1C	1E	2G/	0c
.	.	2.A/	.
0F	0A	.	.
.	.	4F/	.
.	.	1c	.
.	.	.	1f
.	.	2A/	.
=15	=15	=15	=15
1E	1G	2B\	2.g/
.	.	2c\	.
.	.	.	4a/
0D	1F	2.d\	2b-i\
.	.	.	1a
.	.	4c\	.
.	1D	2.A/	.
.	.	.	2f/
.	.	4B\	.
=16	=16	=16	=16
1.C	0E	2.c\	2g/
.	.	.	2.e/
.	.	4B\	.
.	.	2G/	.
.	.	.	4d/
2AA/	.	1A	2c/
1E	1r	.	1B
.	.	2G#i/	.
=17	=17	=17	=17
2r	0.e	1A	2A/
2AA/	.	.	2.c/
2.C/	.	2E/	.
.	.	.	4d/
.	.	2.G/	4e/
4D\	.	.	4f/
4E\	.	.	2.g/
4F\	.	4A/	.
[2G\	.	[2B\	.
.	.	.	4a/
=18	=18	=18	=18
2G\]	1d	4B\]	2b\
.	.	4c\	.
2D\	.	4d\	1a
.	.	2f\	.
2.A\	1c	.	.
.	.	4e\	.
.	.	1e	1cc
4G\	.	.	.
1F	1A	.	.
.	.	2d\	4b\
.	.	.	4a/
=19	=19	=19	=19
1.E	1B	1e	0g
.	0e	2r	.
2C/	.	1g	.
1C	.	.	2r
.	.	2e\	2g/
=20	=20	=20	=20
2r	1d	2f\	2a/
2G\	.	2g\	2b\
2.A\	1c	1e	2cc\
.	.	.	2.c/
4B\	.	.	.
1c	1A	1r	.
.	.	.	4d/
.	.	.	4e/
.	.	.	4c/
=21	=21	=21	=21
2r	1B	1r	1d
2G\	.	.	.
2.A\	0e	2r	1c
.	.	2a\	.
4B\	.	.	.
1c	.	2g\	2r
.	.	2e\	2g/
=22	=22	=22	=22
2r	1d	2f\	2a/
2G\	.	2g\	2b\
2.A\	1c	2e\	2cc\
.	.	2.c\	1a
4B\	.	.	.
2c\	1A	.	.
.	.	4B\	.
2F\	.	2A/	2cc\
=23	=23	=23	=23
2G\	1B	0G	2b\
2.E\	.	.	2.g/
.	0e	.	.
4C/	.	.	4f/
2.C/	.	.	4e/
.	.	.	4d/
.	.	1c	2c/
4D\	.	.	.
4E\	.	.	[2g/
4F\	.	.	.
=24	=24	=24	=24
2G\	1d	2B\	4g/]
.	.	.	4f/
2D\	.	1A	2.f/
2.A\	1c	.	.
.	.	.	4e/
.	.	2G/	1e
4G\	.	.	.
1F	1A	2A/	.
.	.	2D/	2d/
=25	=25	=25	=25
0.El	0.Bl	0.Gl	0.el
!!LO:LB:i:g=z
=26||	=26||	=26||	=26||
*>B	*>B	*>B	*>B
*clefF4	*clefGv2	*clefGv2	*clefG2
*k[]	*k[]	*k[]	*k[]
*M3/1	*M3/1	*M3/1	*M3/1
*met(O)	*met(O)	*met(O)	*met(O)
!!!OMD: Pleni sunt celi
!!section: Pleni sunt celi
0.r	0.r	0.r	1.a
.	.	.	2g/
.	.	.	2f/
.	.	.	2d/
=27	=27	=27	=27
0.r	1.A	0.r	1e
.	.	.	0a
.	2G/	.	.
.	2F/	.	.
.	2D/	.	.
=28	=28	=28	=28
0.r	1E	0.r	1g
.	0A	.	2f/
.	.	.	1e
.	.	.	4d/
.	.	.	4c/
=29	=29	=29	=29
0.r	1G	0.r	2B/
.	.	.	2.e/
.	2F/	.	.
.	.	.	4d/
.	2D/	.	1d
.	2E/	.	.
.	[2e\	.	2c/
=30	=30	=30	=30
0.r	2e\]	0.r	2g/
.	2d\	.	2.f/
.	2c\	.	.
.	.	.	4e/
.	2A/	.	2.a/
.	2B\	.	.
.	.	.	4g/
.	[2e\	.	2g/
=31	=31	=31	=31
0.r	2e\]	0.r	2cc\
.	2d\	.	2.b\
.	2c\	.	.
.	.	.	4a/
.	2A/	.	1a
.	1B	.	.
.	.	.	2g#i/
=32	=32	=32	=32
0AA	0.r	0.A	0a
2C/	.	.	1r
2D\	.	.	.
=33	=33	=33	=33
0E	0.r	1G	0.r
.	.	1.c	.
1A	.	.	.
.	.	2A/	.
=34	=34	=34	=34
1G	0.r	1B	0.r
1.c	.	0e	.
2A\	.	.	.
=35	=35	=35	=35
1B	0.r	1d	0.r
1A	.	1.f	.
1D	.	.	.
.	.	2d\	.
=36	=36	=36	=36
2r	0.r	0.e	0.r
1A	.	.	.
2G\	.	.	.
2.c\	.	.	.
4A\	.	.	.
=37	=37	=37	=37
1B	0.r	1d	0.r
2r	.	2c\	.
1A	.	2A/	.
.	.	1B	.
2G\	.	.	.
=38	=38	=38	=38
2.F\	0.r	2r	0.r
.	.	2A/	.
4D\	.	.	.
2E\	.	2G/	.
1A	.	2.F/	.
.	.	4D/	.
2G\	.	2E/	.
=39	=39	=39	=39
2.F\	0.r	2r	0.r
.	.	2A/	.
4D\	.	.	.
2E\	.	2G/	.
1AA	.	2.c\	.
.	.	4A/	.
2GG/	.	2B\	.
=40	=40	=40	=40
2.C/	0.r	2r	0.r
.	.	2e\	.
4AA/	.	.	.
2BB/	.	2d\	.
1D	.	2.f\	.
.	.	4d\	.
2C/	.	2e\	.
=41	=41	=41	=41
2.F\	0.r	2r	0.r
.	.	2A/	.
4D\	.	.	.
2E\	.	2G/	.
1A	.	2.c\	.
.	.	4A/	.
2G\	.	2B\	.
=42	=42	=42	=42
2.c\	0.r	2r	0.r
.	.	2A/	.
4A\	.	.	.
2B\	.	2G/	.
1A	.	2.c\	.
.	.	4A/	.
2G\	.	2B\	.
=43	=43	=43	=43
2F\	0.r	2r	1r
2D\	.	1d	.
1E	.	.	1r
.	.	2c\	.
1r	.	2.f\	2r
.	.	.	2a/
.	.	4d\	.
=44	=44	=44	=44
0.r	2r	0.e	2g/
.	1A	.	2.cc\
.	.	.	4a/
.	2G/	.	2b\
.	2.c\	.	2r
.	.	.	[2a/
.	4A/	.	.
=45	=45	=45	=45
0.r	1B	0.r	2a/]
.	.	.	2g/
.	2r	.	2f/
.	1d	.	2d/
.	.	.	1e
.	2c\	.	.
=46	=46	=46	=46
0.r	2.f\	0.r	2r
.	.	.	1d
.	4d\	.	.
.	1e	.	.
.	.	.	2c/
.	2r	.	2.f/
.	[2d\	.	.
.	.	.	4d/
=47	=47	=47	=47
0.r	2d\]	1r	1e
.	2c\	.	.
.	2.f\	1r	2r
.	.	.	2a/
.	4d\	.	.
.	[1e	2r	2g/
.	.	[2A/	[2cc\
=48	=48	=48	=48
1r	0e]	2A/]	4cc\]
.	.	.	4a/
.	.	2G/	2b\
1A	.	2.c\	2r
.	.	.	2a/
.	.	4A/	.
*	*	*M2/1	*
*	*	*met(3)	*
2E\	2r	3B\	2g/
.	.	3c\	.
[2F\	[2A/	.	[2cc\
.	.	3A/	.
=49	=49	=49	=49
2F\]	2A/]	3c\	4cc\]
.	.	.	4a/
.	.	3d\	.
2G\	2G/	.	2.b\
.	.	3B\	.
2A\	2c\	3e\	.
.	.	.	4a/
.	.	3f\	.
2F\	2A/	.	1a
.	.	3d\	.
1E	1B	[1el	.
.	.	.	2g#i/
=50	=50	=50	=50
1AA	2r	0.e_	2a/
.	1A	.	1cc
1r	.	.	.
.	2G/	.	2b\
1AA	2c\	.	1a
.	2A/	.	.
=51	=51	=51	=51
0.El	0.Bl	0.e]	0.g;l
!!LO:LB:i:g=z
=52||	=52||	=52||	=52||
*>C	*>C	*>C	*>C
*clefF4	*clefGv2	*clefGv2	*clefG2
*k[]	*k[]	*k[]	*k[]
*M3/1	*M3/1	*M3/1	*M3/1
*met(O)	*met(O)	*met(O)	*met(O)
!!!OMD: Osanna
!!section: Osanna
0E	0.r	0.r	0.r
1D	.	.	.
=53	=53	=53	=53
1.C	0.r	0e	0.r
2AA/	.	.	.
1BB	.	1d	.
=54	=54	=54	=54
2r	0.r	1.c	0e
1AA	.	.	.
1A	.	2A/	.
.	.	1B	1d
2G\	.	.	.
=55	=55	=55	=55
2A\	0e	0.r	1.c
1AA	.	.	.
1A	.	.	2A/
.	1d	.	1B
2G\	.	.	.
=56	=56	=56	=56
2A\	1c	2r	2r
2AA/	.	2A/	1e
2A\	1A	2.c\	.
2F\	.	.	2f/
.	.	4d\	.
1E	1B	2e\	1g
.	.	2f\	.
=57	=57	=57	=57
2r	0e	1g	4c/
.	.	.	4d/
1c	.	.	4e/
.	.	.	4f/
.	.	1c	2g/
2A\	.	.	2cc\
2B\	1d	2r	2dd\
2G\	.	2g\	2b\
=58	=58	=58	=58
2A\	1c	2e\	2cc\
1F	.	2.f\	1a
.	1A	.	.
.	.	4e\	.
2A\	.	2c\	2cc\
2G\	1B	2d\	2b\
2E\	.	2e\	2g/
=59	=59	=59	=59
2F\	0A	2c\	2a/
2D\	.	2d\	2f/
2r	.	2A/	2r
2D\	.	2d\	2f/
2E\	1G	2B\	2g/
2C/	.	2c\	2e/
=60	=60	=60	=60
2D\	1F	2A/	2f/
1BB-	.	2.B-\	1d
.	1D	.	.
.	.	4A/	.
2D\	.	2F/	2f/
4C/	1E	2G/	4e/
4BB-i/	.	.	4d/
4AA/	.	[2A/	4c/
4GG/	.	.	4B/
=61	=61	=61	=61
2FF/	0A	4A/]	2A/
.	.	4G/	.
1F	.	4F/	1a
.	.	4E/	.
.	.	2D/	.
2D\	.	2d\	2f/
2E\	1G	2B\	2g/
2C/	.	2c\	[2e/
=62	=62	=62	=62
2.D\	1F	2A/	4e/]
.	.	.	4d/
.	.	1d	2.f/
4E\	.	.	.
4F\	1D	.	.
4G\	.	.	4e/
1A	.	2f\	4d/
.	.	.	4c/
.	1E	1e	1B
2G#i\	.	.	.
=63	=63	=63	=63
2A\	0e	0.r	0.r
2.E\	.	.	.
4F\	.	.	.
4G\	.	.	.
4A\	.	.	.
2B\	1d	.	.
2G\	.	.	.
=64	=64	=64	=64
2A\	1c	0.r	0.r
2.c\	.	.	.
.	1A	.	.
4B\	.	.	.
1A	.	.	.
.	1B	.	.
2G#i\	.	.	.
=65	=65	=65	=65
1A	0e	0c	2r
.	.	.	2.e/
1c	.	.	.
.	.	.	4f/
.	.	.	4g/
.	.	.	4a/
1B	1d	2G/	2b\
.	.	2d\	2g/
=66	=66	=66	=66
2.A\	1c	2e\	2a/
.	.	2A/	2.cc\
4G\	.	.	.
1F	1A	2.c\	.
.	.	.	4b\
.	.	.	1a
.	.	4d\	.
1E	1B	1e	.
.	.	.	2g#i/
=67	=67	=67	=67
2r	0A	1c	1a
2.AA/	.	.	.
.	.	1r	1e
4BB/	.	.	.
4C/	.	.	.
4D\	.	.	.
2E\	1G	1r	1r
2C/	.	.	.
=68	=68	=68	=68
2D\	1F	0.r	0.r
2.F\	.	.	.
.	1D	.	.
4E\	.	.	.
1D	.	.	.
.	1E	.	.
2C#i/	.	.	.
=69	=69	=69	=69
1D	0A	0F	2r
.	.	.	2.A/
1F	.	.	.
.	.	.	4B/
.	.	.	4c/
.	.	.	4d/
1E	1G	2C/	2e/
.	.	2G/	2c/
=70	=70	=70	=70
2.D\	1F	2A/	2d/
.	.	2D/	2.f/
4C/	.	.	.
1BB	1D	2.F/	.
.	.	.	4e/
.	.	.	1d
.	.	4G/	.
1AA	1E	1A	.
.	.	.	2c#i/
=71	=71	=71	=71
2.A\	2r	1.D	2d/
.	1A	.	1f
4G\	.	.	.
2F\	.	.	.
2E\	2G/	2E/	2g/
4D\	2F/	2F/	2a/
4C/	.	.	.
2BB/	2D/	2G/	2b\
=72	=72	=72	=72
0.AAl	0.El	0.Al	0.ccl
!!LO:LB:i:g=z
=73||	=73||	=73||	=73||
*>D	*>D	*>D	*>D
*clefF4	*clefGv2	*clefGv2	*clefG2
*k[]	*k[]	*k[]	*k[]
*M2/1	*M2/1	*M2/1	*M2/1
*met(C|)	*met(C|)	*met(C|)	*met(C|)
!!!OMD: Benedictus
!!section: Benedictus
2.E\	[0e	0r	0r
4F\	.	.	.
2G\	.	.	.
[2A\	.	.	.
=74	=74	=74	=74
2A\]	0e_	0r	0r
4G\	.	.	.
4F\	.	.	.
4G\	.	.	.
4F\	.	.	.
4E\	.	.	.
4D\	.	.	.
=75	=75	=75	=75
1C	0e]	0r	2.g/
.	.	.	4a/
1r	.	.	2b\
.	.	.	[2cc\
=76	=76	=76	=76
0r	0d	0r	2cc\]
.	.	.	4b\
.	.	.	4a/
.	.	.	4b\
.	.	.	4a/
.	.	.	4g/
.	.	.	4f/
=77	=77	=77	=77
0r	1c	2r	1e
.	.	2e\	.
.	1A	2f\	1r
.	.	[2a\	.
=78	=78	=78	=78
0r	0B	2a\]	0r
.	.	4g\	.
.	.	4f\	.
.	.	4g\	.
.	.	4f\	.
.	.	4e\	.
.	.	4d\	.
=79	=79	=79	=79
2.A\	0r	1c	[0a
4B\	.	.	.
2c\	.	1r	.
[2d\	.	.	.
=80	=80	=80	=80
2d\]	0r	0r	0a_
4c\	.	.	.
4B\	.	.	.
4c\	.	.	.
4B\	.	.	.
4A\	.	.	.
4G\	.	.	.
=81	=81	=81	=81
1F	0r	2r	0a]
.	.	2c\	.
1r	.	2d\	.
.	.	[2f\	.
=82	=82	=82	=82
0r	0r	2f\]	0g
.	.	4e\	.
.	.	4d\	.
.	.	4e\	.
.	.	4d\	.
.	.	4c\	.
.	.	4B\	.
=83	=83	=83	=83
0r	2r	2A/	1f
.	2A/	2F/	.
.	2B\	2G/	1d
.	[2d\	2D/	.
=84	=84	=84	=84
0r	2d\]	1.A	1e
.	4c\	.	.
.	4B\	.	.
.	4c\	.	[1A
.	4B\	.	.
.	4A/	2B\	.
.	4G/	.	.
=85	=85	=85	=85
[0A	2.F/	1c	2A/]
.	.	.	2B/
.	4G/	.	.
.	2.A/	1F	2c/
.	.	.	2d/
.	4B\	.	.
=86	=86	=86	=86
0A_	1c	2r	2e/
.	.	2F/	2.f/
.	1F	2.A/	.
.	.	.	4g/
.	.	.	[2a/
.	.	4B\	.
=87	=87	=87	=87
0A]	1r	2.c\	4a/]
.	.	.	4b\
.	.	.	1cc
.	.	4d\	.
.	1c	2e\	.
.	.	2f\	4b\
.	.	.	4a/
=88	=88	=88	=88
0G	1d	2.g\	2.b\
.	.	4f\	4a/
.	1B	2.d\	4b\
.	.	.	4cc\
.	.	.	[2dd\
.	.	4e\	.
=89	=89	=89	=89
1F	1A	2f\	4dd\]
.	.	.	4cc\
.	.	2c\	1a
1D	1d	1f	.
.	.	.	[2b\
=90	=90	=90	=90
[0E	2B\	0e	2b\]
.	1e	.	1cc
.	4d\	.	4b\
.	4c\	.	4a/
=91	=91	=91	=91
0E]	2B\	2r	2g/
.	2A/	[1.e	1a
.	1B	.	.
.	.	.	2g#i/
=92	=92	=92	=92
[0AAl	[0Al	2e\]	[0al
.	.	2c\	.
.	.	2.f\	.
.	.	4e\	.
=93	=93	=93	=93
0AA]	0A]	0el	0a]
!!LO:LB:i:g=z
=94||	=94||	=94||	=94||
*>E	*>E	*>E	*>E
*clefF4	*clefGv2	*clefGv2	*clefG2
*k[]	*k[]	*k[]	*k[]
*M2/1	*M2/1	*M2/1	*M2/1
*met(C|)	*met(C|)	*met(C|)	*met(C|)
!!!OMD: Qui venit
!!section: Qui venit
0r	0r	0A	0r
=95	=95	=95	=95
0r	0r	1B	0r
.	.	1d	.
=96	=96	=96	=96
0r	0r	1.c	0a
.	.	4B\	.
.	.	4A/	.
=97	=97	=97	=97
0r	0r	1.G	1b
.	.	.	1dd
.	.	4A/	.
.	.	4B\	.
=98	=98	=98	=98
0r	0r	2c\	1.cc
.	.	1A	.
.	.	4G/	4b\
.	.	4F/	4a/
=99	=99	=99	=99
0r	0r	1E	1.g
.	.	1G	.
.	.	.	4a/
.	.	.	4b\
=100	=100	=100	=100
0r	0r	1.A	2cc\
.	.	.	1a
.	.	2B\	4g/
.	.	.	4f/
=101	=101	=101	=101
0r	0r	1c	1e
.	.	2B\	1g
.	.	[2c\	.
=102	=102	=102	=102
0r	0r	2c\]	1.a
.	.	4B\	.
.	.	4A/	.
.	.	2c\	.
.	.	2d\	2b\
=103	=103	=103	=103
0r	0r	[0e	1cc
.	.	.	2b\
.	.	.	[2cc\
=104	=104	=104	=104
1.E	0r	0e]	2cc\]
.	.	.	4b\
.	.	.	4a/
.	.	.	1g
2F\	.	.	.
=105	=105	=105	=105
2G\	0r	0r	2r
1A	.	.	1e
4G\	.	.	2f/
4F\	.	.	.
=106	=106	=106	=106
2E\	0r	2r	2g/
2AA/	.	1A	1a
1r	.	.	.
.	.	2B\	4g/
.	.	.	4f/
=107	=107	=107	=107
0r	0r	2c\	2e/
.	.	1d	1a
.	.	4c\	2b\
.	.	4B\	.
=108	=108	=108	=108
1r	0r	2A/	2cc\
.	.	2D/	1dd
2D\	.	1r	.
2E\	.	.	4cc\
.	.	.	4b\
=109	=109	=109	=109
2F\	0r	0r	2a/
1G	.	.	1d
4F\	.	.	2e/
4E\	.	.	.
=110	=110	=110	=110
2D\	0r	2r	2f/
2GG/	.	1G	1g
1r	.	.	.
.	.	2A/	4f/
.	.	.	4e/
=111	=111	=111	=111
0r	0r	2B\	2d/
.	.	1c	1g
.	.	4B\	2a/
.	.	4A/	.
=112	=112	=112	=112
1r	0r	2G/	2b\
.	.	2C/	1cc
2C/	.	1r	.
2D\	.	.	4b\
.	.	.	4a/
=113	=113	=113	=113
2E\	0r	0r	2g/
1F	.	.	1c
4E\	.	.	2d/
4D\	.	.	.
=114	=114	=114	=114
2C/	0r	2r	2e/
2FF/	.	1F	1f
1r	.	.	.
.	.	2G/	4e/
.	.	.	4d/
=115	=115	=115	=115
1.F	0r	2A/	2c/
.	.	1F	1a
2E\	.	2G/	2g/
=116	=116	=116	=116
2F\	0r	2A/	2f/
2G\	.	2B\	2d/
2C/	.	1c	2e/
[2F\	.	.	[2a/
=117	=117	=117	=117
2F\]	0r	2F/	2a/]
2E\	.	2G/	2g/
2F\	.	2A/	2f/
2G\	.	2B\	2d/
=118	=118	=118	=118
2E\	0r	2.c\	2e/
1F	.	.	1a
.	.	4d\	.
.	.	2f\	.
2G\	.	[2e\	2g/
=119	=119	=119	=119
2A\	0r	4e\]	2f/
.	.	4d\	.
2B-i\	.	1d	2d/
1A	.	.	1e
.	.	2c#i\	.
=120	=120	=120	=120
2r	0r	2d\	0r
1F	.	1a	.
2G\	.	2g\	.
=121	=121	=121	=121
2A\	0r	2f\	1r
2B\	.	2d\	.
2c\	.	2e\	2r
[2F\	.	[2a\	2c/
=122	=122	=122	=122
2F\]	0r	2a\]	2f/
2E\	.	2g\	2g/
2F\	.	2f\	2a/
2G\	.	2d\	2b\
=123	=123	=123	=123
2E\	0r	2e\	2.cc\
1F	.	1a	.
.	.	.	4dd\
.	.	.	2ff\
2G\	.	2g\	[2ee\
=124	=124	=124	=124
2A\	0r	2f\	4ee\]
.	.	.	4dd\
2B\	.	2d\	2.dd\
2c\	.	2e\	.
.	.	.	4cc\
[2F\	.	[2a\	[2cc\
=125	=125	=125	=125
2F\]	0r	2a\]	4cc\]
.	.	.	4b\
2G\	.	2g\	2b\
2A\	.	2f\	2.a/
2B\	.	2d\	.
.	.	.	4g/
=126	=126	=126	=126
0cl	0r	0el	0gl
!!LO:LB:i:g=z
=127||	=127||	=127||	=127||
*>F	*>F	*>F	*>F
*clefF4	*clefGv2	*clefGv2	*clefG2
*k[]	*k[]	*k[]	*k[]
*M3/1	*M3/1	*M3/1	*M3/1
*met(3)	*met(3)	*met(3)	*met(3)
!!!OMD: Osanna 2
!!section: Osanna 2
1.E	0e	0.r	0.r
2F\	.	.	.
1G	1d	.	.
=128	=128	=128	=128
1A	0c	0.r	0.r
1E	.	.	.
1F	1A	.	.
=129	=129	=129	=129
1.G	0.B	0.r	0.r
2F\	.	.	.
1D	.	.	.
=130	=130	=130	=130
0.C	1r	1.e	0.r
.	0e	.	.
.	.	2f\	.
.	.	1g	.
=131	=131	=131	=131
0.r	1d	1a	0.r
.	1c	1e	.
.	1A	1f	.
=132	=132	=132	=132
1.G	0B	1.g	0.r
2A\	.	2f\	.
1B	1r	1d	.
=133	=133	=133	=133
1c	0e	1c	1.g
1C	.	1.g	.
.	.	.	2a/
1G	1d	.	1b
.	.	2f\	.
=134	=134	=134	=134
0A	1c	0e	0cc
.	1A	.	.
1E	1B	1e	1g
=135	=135	=135	=135
1F	1r	0c	1a
1E	0e	.	1g
1C	.	1c	1a
=136	=136	=136	=136
1G	1d	1d	1b
1E	1c	1e	1g
1F	1A	1c	1a
=137	=137	=137	=137
1G	1B	1r	1.g
1C	1.e	0g	.
.	.	.	2a/
1G	.	.	1b
.	2d\	.	.
=138	=138	=138	=138
0A	1c	1e	0cc
.	1A	1f	.
1G	1B	1g	1b
=139	=139	=139	=139
1A	1.e	1c	1cc
1G	.	1g	1.b
.	2d\	.	.
[1A	1c	1e	.
.	.	.	2a/
=140	=140	=140	=140
1A]	1A	1f	0a
0E	0B	0e	.
.	.	.	1g#i
=141	=141	=141	=141
1.AA	0A	1.c	0a
2BB/	.	2d\	.
1C	1G	1e	1r
=142	=142	=142	=142
0D	1F	0f	1.A
.	1D	.	.
.	.	.	2B/
1AA	1E	1e	1c
=143	=143	=143	=143
1.D	1r	1.f	0d
.	0A	.	.
2E\	.	2e\	.
1F	.	2d\	1A
.	.	2c\	.
=144	=144	=144	=144
1G	1G	1B	1.d
0D	1F	1A	.
.	.	.	2e/
.	1D	1d	1f
=145	=145	=145	=145
1.G	0E	1B	0g
.	.	1.G	.
2A\	.	.	.
1B	1r	.	1d
.	.	2A/	.
=146	=146	=146	=146
1.E	0e	1B	1.g
.	.	1E	.
2F\	.	.	2a/
1G	1d	1r	1b
=147	=147	=147	=147
0A	1c	1A	1.e
.	1A	1c	.
.	.	.	2f/
1E	1B	1B	1g
=148	=148	=148	=148
1.c	0e	1A	1a
.	.	1c	1e
2B\	.	.	.
1G	1d	1B	1b
=149	=149	=149	=149
1.A	1c	1A	1.cc
.	1A	0e	.
2G\	.	.	2b\
1E	1B	.	1g
=150	=150	=150	=150
1AA	0e	1.c	1a
1C	.	.	1e
.	.	2B\	.
1D	1d	1A	1r
=151	=151	=151	=151
1E	1c	1G	0.r
1F	1A	1A	.
1G	1B	1E	.
=152	=152	=152	=152
0A	0e	0.r	1A
.	.	.	1c
1D	1d	.	1d
=153	=153	=153	=153
0A	1c	0.r	1e
.	1A	.	1f
1G	1B	.	1g
=154	=154	=154	=154
0c	0e	1A	1a
.	.	1c	1A
1B	1d	1d	1B
=155	=155	=155	=155
0A	1c	1e	1.c
.	1A	1f	.
.	.	.	2d/
1E	1B	1g	1e
=156	=156	=156	=156
0c	0e	1a	1A
.	.	1e	1c
1B	1d	1r	1d
=157	=157	=157	=157
1.A	1c	1A	1e
.	0A	1c	1A
2G\	.	.	.
1F	.	1d	1a
=158	=158	=158	=158
1E	1B	1.e	1g
1c	1e	.	1c
.	.	2f\	.
1B	1d	1g	1d
=159	=159	=159	=159
1.A	0c	1a	1e
.	.	1e	1c
2G\	.	.	.
1F	1A	1a	1d
=160	=160	=160	=160
1.E	0B	0g	[0.el
2D\	.	.	.
2C/	[1e	1G	.
2BB/	.	.	.
=161	=161	=161	=161
1C	2e\]	1G	0.e_
.	2d\	.	.
0AA	1c	0A	.
.	1A	.	.
=162	=162	=162	=162
0.El	0.Bl	0.Gl	0.e]
==	==	==	==
*-	*-	*-	*-
!!!RDF**kern: l=long note in original notation
!!!RDF**kern: i=editorial accidental
!!!ENC: Jesse Rodin; Victoria Chang 2011/05/04
!!!END: 2011/05/04/
!!!EED:	Jesse Rodin
!!!EEV:	2013/10/25/
!!attribution-level@Jos: 1 (secure)
!!!ONB:	Translated from MusicXML and edited on 2011/09/19/ by Craig Sapp
!!muse2ps: T^@{OPR}^u^@{ONM}{. }@{OTL}^C^@{COM}\n@{SCT}^i2I100v85,90,85,150c100Q16
